packages/ui-icons/svg/Solid/subtitles.svg

<svg viewBox="0 0 1920 1920" xmlns="http://www.w3.org/2000/svg">
    <path fill-rule="evenodd" clip-rule="evenodd" d="M213.333 0C95.513 0 0 95.513 0 213.333V1706.67C0 1824.49 95.513 1920 213.333 1920H1706.67c117.82 0 213.33-95.51 213.33-213.33V213.333C1920 95.513 1824.49 0 1706.67 0H213.333ZM320 1200c0-44.18 35.817-80 80-80h693.33c44.19 0 80 35.82 80 80s-35.81 80-80 80H400c-44.183 0-80-35.82-80-80Zm1066.67 0c0-44.18 35.81-80 80-80H1520c44.18 0 80 35.82 80 80s-35.82 80-80 80h-53.33c-44.19 0-80-35.82-80-80Zm-640.003 320c0-44.18 35.817-80 80-80H1520c44.18 0 80 35.82 80 80s-35.82 80-80 80H826.667c-44.183 0-80-35.82-80-80ZM320 1520c0-44.18 35.817-80 80-80h53.333c44.183 0 80 35.82 80 80s-35.817 80-80 80H400c-44.183 0-80-35.82-80-80Z"/>
</svg>

<svg viewBox="0 0 1920 1920" xmlns="http://www.w3.org/2000/svg">
    <path fill-rule="evenodd" clip-rule="evenodd" d="M213.333 0C95.5126 0 0 95.5126 0 213.333V1706.67C0 1824.49 95.5126 1920 213.333 1920H1706.67C1824.49 1920 1920 1824.49 1920 1706.67V213.333C1920 95.5126 1824.49 0 1706.67 0H213.333ZM320 1200C320 1155.82 355.817 1120 400 1120H1093.33C1137.52 1120 1173.33 1155.82 1173.33 1200C1173.33 1244.18 1137.52 1280 1093.33 1280H400C355.817 1280 320 1244.18 320 1200ZM1386.67 1200C1386.67 1155.82 1422.48 1120 1466.67 1120H1520C1564.18 1120 1600 1155.82 1600 1200C1600 1244.18 1564.18 1280 1520 1280H1466.67C1422.48 1280 1386.67 1244.18 1386.67 1200ZM746.667 1520C746.667 1475.82 782.484 1440 826.667 1440H1520C1564.18 1440 1600 1475.82 1600 1520C1600 1564.18 1564.18 1600 1520 1600H826.667C782.484 1600 746.667 1564.18 746.667 1520ZM320 1520C320 1475.82 355.817 1440 400 1440H453.333C497.516 1440 533.333 1475.82 533.333 1520C533.333 1564.18 497.516 1600 453.333 1600H400C355.817 1600 320 1564.18 320 1520Z"/>
</svg>
